X: 4362
T: FAIN FOR REST. (Lucia di Lammermoor.)
%R: air, jig, march
B: James Kerr "Merry Melodies" v.4 p.39 #362
Z: 2016 John Chambers <jc:trillian.mit.edu>
M: 6/8
L: 1/8
K: C
G2c |\
e2B dcA | G2E G2A | G2D G2A | G2E G2c |\
e2B dcA | G2E G2A | G2D G2A | G2E e2d |
c2B A2G | FAG F3  | FAG FAG | E2G e2d |\
c2B A2G | FAG F3  | FAG FAG | [c3E3] |]

%%sep 1 1 500
%%sep 1 1 500

